X: 42604
T: Where's The Wife?
R: hornpipe
M: 4/4
K: Gmajor
|:GE|D3 E D2 ^CD|EGGE G2 GA|BddB dBAB|E2 EF E2 GF|
D3 E D2 ^CD|EGGE G2 GA|BddB dBAB|G2 GF G2:|
|:GA|BddB d2Bd|eggf g2ge|d2de dBGA|BAAG A2GA|
BddB d2Bd|egge g2ge|d2 de dBGA|B2A2 G2:|

